src/assets/images/logo.svg

<svg fill="none" height="37" viewBox="0 0 196 37" width="196" xmlns="http://www.w3.org/2000/svg"><path d="m15.8647 36.528c-3.256 0-6.08666-.6307-8.492-1.892-2.376-1.2613-4.19466-2.992-5.456-5.192-1.261329-2.2293-1.8919956-4.7227-1.8919956-7.48 0-2.6693.7040006-5.06 2.1119956-7.172 1.408-2.1413 3.32934-3.7987 5.764-4.972 2.4347-1.20267 5.148-1.804 8.14-1.804 1.3787 0 2.7867.132 4.224.396 1.4373.23467 2.5667.528 3.388.88.2347.11733.3813.23466.44.352.0587.11733.1027.33733.132.66l.352 5.764c0 .1173-.0733.1907-.22.22s-.2493 0-.308-.088c-1.0267-2.2293-2.376-3.96-4.048-5.192-1.672-1.26133-3.608-1.892-5.808-1.892-2.8453 0-5.06 1.012-6.64399 3.036-1.58401 1.9947-2.37601 4.7227-2.37601 8.184 0 3.0213.528 5.6907 1.584 8.008s2.49334 4.1067 4.312 5.368c1.848 1.2613 3.9307 1.892 6.248 1.892 1.056 0 1.8627-.1467 2.42-.44.5573-.3227.9387-.836 1.144-1.54.2347-.7333.352-1.7893.352-3.168 0-1.4373-.132-2.4787-.396-3.124s-.748-1.0707-1.452-1.276-1.8333-.308-3.388-.308c-.176 0-.264-.1173-.264-.352 0-.088.0147-.1613.044-.22.0587-.088.1173-.132.176-.132 2.4347.1467 4.4587.22 6.072.22 1.5253 0 3.1093-.044 4.752-.132.1173 0 .1907.1027.22.308s-.0147.308-.132.308c-.4693-.0293-.7627.088-.88.352s-.176.8653-.176 1.804v2.992c0 1.32.044 2.244.132 2.772s.132.8947.132 1.1c0 .176-.0293.2933-.088.352-.0293.0587-.132.1173-.308.176-3.7547.8213-7.0253 1.232-9.812 1.232zm37.3821-7.524c.0587-.0587.132-.088.22-.088s.176.0293.264.088c.088.0293.1174.0587.088.088-.2933 1.9067-.44 3.9893-.44 6.248 0 .2347-.044.4107-.132.528-.088.088-.264.132-.528.132h-20.064c-.1173 0-.176-.088-.176-.264s.044-.264.132-.264c.88 0 1.5107-.0733 1.892-.22.4107-.1467.6747-.4253.792-.836.1467-.4107.22-1.0707.22-1.98v-20.372c0-.88-.0733-1.5253-.22-1.936-.1466-.41067-.4253-.68934-.836-.836-.4106-.176-1.0266-.264-1.848-.264-.088 0-.1466-.088-.176-.264 0-.176.0294-.264.088-.264h18.964c.2347 0 .352.132.352.396l.088 5.808c0 .088-.088.132-.264.132-.1466 0-.2346-.0293-.264-.088-.4986-1.6427-1.408-2.9333-2.728-3.872-1.2906-.968-2.8306-1.452-4.62-1.452h-.836c-.9093 0-1.5693.07333-1.98.22-.3813.11733-.6306.352-.748.704-.1173.352-.1906.9387-.22 1.76v8.976h5.5c1.496 0 2.596-.264 3.3-.792s1.056-1.3787 1.056-2.552c0-.1173.1027-.176.308-.176.2054 0 .308.0733.308.22l-.044 2.42c-.0293.352-.044.8507-.044 1.496 0 .9387.0147 1.6427.044 2.112l.044 2.376c0 .1467-.088.22-.264.22-.088 0-.176-.0147-.264-.044-.0586-.0587-.088-.1173-.088-.176 0-1.2613-.396-2.2147-1.188-2.86-.7626-.6747-1.848-1.012-3.256-1.012h-5.412v9.944c0 1.1733.176 1.936.528 2.288.3814.352 1.1587.528 2.332.528h1.232c1.9067 0 3.652-.5427 5.236-1.628 1.584-1.1147 2.8014-2.596 3.652-4.444zm34.8157 6.468c.088 0 .132.088.132.264.0294.176-.0146.264-.132.264h-7.216c-.704 0-1.936-1.1733-3.696-3.52-1.7306-2.376-3.828-5.94-6.292-10.692-.8213.2053-1.7306.308-2.728.308-.1466 0-.3373-.0293-.572-.088v10.428c-.0293.8507.0294 1.496.176 1.936.176.4107.4694.704.88.88.44.1467 1.1.22 1.98.22.1174 0 .176.088.176.264.0294.176-.0146.264-.132.264-.9973 0-1.76-.0147-2.288-.044l-3.256-.044-3.3.044c-.5866.0293-1.3786.044-2.376.044-.1173 0-.1906-.088-.22-.264 0-.176.0587-.264.176-.264.968 0 1.6867-.0733 2.156-.22.4694-.176.7774-.4693.924-.88.176-.44.2787-1.0853.308-1.936v-20.372c0-.88-.088-1.5253-.264-1.936-.1466-.41067-.44-.68934-.88-.836-.44-.176-1.1146-.264-2.024-.264-.1173 0-.176-.088-.176-.264s.0587-.264.176-.264l2.332.044c1.2907.05867 2.3467.088 3.168.088.9974 0 2.0827-.05867 3.256-.176.9387-.05867 1.5547-.088 1.848-.088 2.9627 0 5.1774.484 6.644 1.452 1.496.968 2.244 2.3173 2.244 4.048 0 1.2613-.4253 2.4787-1.276 3.652-.8213 1.1733-1.9213 2.156-3.3 2.948 2.288 3.784 4.224 6.7613 5.808 8.932 1.6134 2.1413 3.0214 3.696 4.224 4.664 1.232.9387 2.4054 1.408 3.52 1.408zm-20.504-14.696c.352.088.7774.132 1.276.132 1.936 0 3.3-.4253 4.092-1.276.8214-.8507 1.232-2.2733 1.232-4.268 0-2.0827-.4106-3.608-1.232-4.576-.792-.99734-1.7746-1.496-2.948-1.496-.792 0-1.3346.05866-1.628.176-.2933.088-.4986.32267-.616.704-.088.352-.1466 1.012-.176 1.98zm24.091 15.224c-.0586 0-.088-.088-.088-.264s.0294-.264.088-.264c.9094 0 1.5547-.0733 1.936-.22.4107-.1467.6894-.4253.836-.836.1467-.4107.22-1.0707.22-1.98v-20.372c0-.8507-.088-1.4813-.264-1.892-.1466-.44-.4253-.73334-.836-.88-.4106-.176-1.0413-.264-1.892-.264-.0586 0-.1026-.088-.132-.264 0-.176.044-.264.132-.264l2.2.044c1.2907.05867 2.332.088 3.124.088.88 0 1.9947-.02933 3.3445-.088l2.156-.044c.058 0 .088.088.088.264s-.03.264-.088.264c-.88 0-1.526.088-1.936.264-.411.176-.6898.46933-.8365.88-.1173.4107-.1906 1.0707-.22 1.98v20.284c0 .88.0734 1.5253.22 1.936.176.4107.4695.704.8805.88.41.1467 1.041.22 1.892.22.058 0 .088.088.088.264s-.03.264-.088.264c-.91 0-1.643-.0147-2.2-.044l-3.2125-.044-3.124.044c-.5573.0293-1.32.044-2.288.044zm2.552-29.832c-.1173 0-.2053-.05867-.264-.176-.0586-.14667-.044-.24933.044-.308.7334-.58667 1.7014-1.51067 2.904-2.772 1.2027-1.20267 1.804-1.804 1.804-1.804.1467-.146668.6747-.088 1.5845.176.938.23467 1.774.528 2.508.88.762.32267.982.51333.66.572-3.139.82133-6.1898 1.95067-9.1525 3.388zm29.5415 30.36c-3.608 0-6.571-.704-8.888-2.112s-3.989-3.1827-5.016-5.324c-1.027-2.1707-1.54-4.4587-1.54-6.864 0-2.904.704-5.4267 2.112-7.568 1.437-2.1707 3.329-3.8133 5.676-4.928 2.376-1.144 4.943-1.716 7.7-1.716 1.349 0 2.757.132 4.224.396 1.467.23467 2.655.528 3.564.88.235.14666.381.27866.44.396.088.11733.132.3227.132.616l.308 5.896c0 .088-.073.132-.22.132-.117 0-.205-.044-.264-.132-1.085-2.2293-2.479-3.9453-4.18-5.148-1.672-1.232-3.579-1.848-5.72-1.848-2.787 0-4.928 1.012-6.424 3.036-1.467 2.024-2.2 4.8693-2.2 8.536 0 2.64.455 5.104 1.364 7.392.939 2.288 2.2 4.1067 3.784 5.456s3.329 2.024 5.236 2.024c3.021 0 5.837-2.2293 8.448-6.688.059-.088.132-.132.22-.132.176 0 .264.088.264.264l-.264 5.06c-.059.3813-.117.6307-.176.748-.059.088-.22.176-.484.264-2.581.9093-5.28 1.364-8.096 1.364zm42.934-1.056c.058 0 .088.088.088.264s-.03.264-.088.264c-.822 0-1.496-.0147-2.024-.044l-3.3-.044-3.168.044c-.558.0293-1.32.044-2.288.044-.059 0-.103-.088-.132-.264 0-.176.044-.264.132-.264.909 0 1.554-.0733 1.936-.22.41-.1467.674-.4253.792-.836.117-.4107.176-1.0707.176-1.98v-10.12h-12.672v10.12c0 .88.073 1.5253.22 1.936.176.4107.469.704.88.88.41.1467 1.056.22 1.936.22.088 0 .132.088.132.264s-.044.264-.132.264c-.968 0-1.716-.0147-2.244-.044l-3.256-.044-3.036.044c-.558.0293-1.291.044-2.2.044-.088 0-.132-.088-.132-.264s.044-.264.132-.264c.88 0 1.51-.0733 1.892-.22.41-.1467.674-.4253.792-.836.146-.4107.22-1.0707.22-1.98v-20.372c.029-1.232-.147-2.0387-.528-2.42-.382-.41067-1.174-.616-2.376-.616-.088 0-.132-.088-.132-.264s.044-.264.132-.264l2.112.044c1.29.05867 2.332.088 3.124.088s1.862-.02933 3.212-.088l2.244-.044c.058 0 .088.088.088.264s-.03.264-.088.264c-.88 0-1.526.088-1.936.264-.411.176-.69.484-.836.924-.118.4107-.191 1.056-.22 1.936v8.932h12.628v-8.932c0-1.2613-.191-2.0973-.572-2.508-.352-.41067-1.13-.616-2.332-.616-.059 0-.103-.088-.132-.264 0-.176.044-.264.132-.264l2.156.044c1.29.05867 2.346.088 3.168.088.792 0 1.833-.02933 3.124-.088l2.244-.044c.088 0 .132.088.132.264s-.044.264-.132.264c-.88 0-1.526.088-1.936.264-.382.14666-.646.42533-.792.836-.147.4107-.25 1.056-.308 1.936v20.372c0 .8507.088 1.496.264 1.936.205.4107.528.704.968.88.44.1467 1.085.22 1.936.22zm10.447.528c-.088 0-.132-.088-.132-.264s.03-.264.088-.264c1.232 0 2.127-.0733 2.684-.22.587-.1467.983-.4253 1.188-.836.206-.44.308-1.1.308-1.98v-20.372c.03-1.0267-.102-1.7013-.396-2.024-.293-.352-.85-.528-1.672-.528h-.572c-.997 0-1.98.32266-2.948.968-.968.616-1.789 1.452-2.464 2.508-.674 1.0267-1.085 2.156-1.232 3.388 0 .0587-.073.088-.22.088-.088 0-.176-.0147-.264-.044-.058-.0587-.073-.1027-.044-.132.147-1.1147.367-4.0333.66-8.756 0-.088.074-.132.22-.132.088 0 .162.01466.22.044.088.02933.132.07333.132.132 0 .616.66.924 1.98.924 2.376.088 5.354.132 8.932.132 1.614 0 3.418-.02933 5.412-.088l3.08-.044c.968 0 1.672-.07333 2.112-.22s.719-.44.836-.88c.059-.088.162-.11734.308-.088.176 0 .25.05867.22.176-.088 1.29067-.176 2.9187-.264 4.884-.088 1.936-.117 3.2413-.088 3.916 0 .088-.088.132-.264.132-.234 0-.352-.0587-.352-.176 0-1.2027-.278-2.3173-.836-3.344-.528-1.0267-1.276-1.848-2.244-2.464-.938-.616-1.965-.924-3.08-.924h-.572c-.586 0-1.012.07333-1.276.22-.234.14667-.381.396-.44.748-.058.3227-.102.88-.132 1.672l.044 20.284c0 .9093.088 1.5693.264 1.98.206.4107.587.6893 1.144.836.558.1467 1.467.22 2.728.22.088 0 .132.088.132.264s-.044.264-.132.264c-1.085 0-1.936-.0147-2.552-.044l-4.004-.044-3.784.044c-.645.0293-1.554.044-2.728.044z" fill="#fff"/></svg>

<svg width="196" height="37" viewBox="0 0 196 37" fill="none" xmlns="http://www.w3.org/2000/svg">
<path d="M15.8647 36.528C12.6087 36.528 9.77804 35.8973 7.3727 34.636C4.9967 33.3747 3.17804 31.644 1.9167 29.444C0.655371 27.2147 0.0247044 24.7213 0.0247044 21.964C0.0247044 19.2947 0.728705 16.904 2.1367 14.792C3.5447 12.6507 5.46604 10.9933 7.9007 9.82C10.3354 8.61733 13.0487 8.016 16.0407 8.016C17.4194 8.016 18.8274 8.148 20.2647 8.412C21.702 8.64667 22.8314 8.94 23.6527 9.292C23.8874 9.40933 24.034 9.52666 24.0927 9.644C24.1514 9.76133 24.1954 9.98133 24.2247 10.304L24.5767 16.068C24.5767 16.1853 24.5034 16.2587 24.3567 16.288C24.21 16.3173 24.1074 16.288 24.0487 16.2C23.022 13.9707 21.6727 12.24 20.0007 11.008C18.3287 9.74667 16.3927 9.116 14.1927 9.116C11.3474 9.116 9.1327 10.128 7.54871 12.152C5.9647 14.1467 5.1727 16.8747 5.1727 20.336C5.1727 23.3573 5.7007 26.0267 6.7567 28.344C7.8127 30.6613 9.25004 32.4507 11.0687 33.712C12.9167 34.9733 14.9994 35.604 17.3167 35.604C18.3727 35.604 19.1794 35.4573 19.7367 35.164C20.294 34.8413 20.6754 34.328 20.8807 33.624C21.1154 32.8907 21.2327 31.8347 21.2327 30.456C21.2327 29.0187 21.1007 27.9773 20.8367 27.332C20.5727 26.6867 20.0887 26.2613 19.3847 26.056C18.6807 25.8507 17.5514 25.748 15.9967 25.748C15.8207 25.748 15.7327 25.6307 15.7327 25.396C15.7327 25.308 15.7474 25.2347 15.7767 25.176C15.8354 25.088 15.894 25.044 15.9527 25.044C18.3874 25.1907 20.4114 25.264 22.0247 25.264C23.55 25.264 25.134 25.22 26.7767 25.132C26.894 25.132 26.9674 25.2347 26.9967 25.44C27.026 25.6453 26.982 25.748 26.8647 25.748C26.3954 25.7187 26.102 25.836 25.9847 26.1C25.8674 26.364 25.8087 26.9653 25.8087 27.904V30.896C25.8087 32.216 25.8527 33.14 25.9407 33.668C26.0287 34.196 26.0727 34.5627 26.0727 34.768C26.0727 34.944 26.0434 35.0613 25.9847 35.12C25.9554 35.1787 25.8527 35.2373 25.6767 35.296C21.922 36.1173 18.6514 36.528 15.8647 36.528ZM53.2468 29.004C53.3055 28.9453 53.3788 28.916 53.4668 28.916C53.5548 28.916 53.6428 28.9453 53.7308 29.004C53.8188 29.0333 53.8482 29.0627 53.8188 29.092C53.5255 30.9987 53.3788 33.0813 53.3788 35.34C53.3788 35.5747 53.3348 35.7507 53.2468 35.868C53.1588 35.956 52.9828 36 52.7188 36H32.6548C32.5375 36 32.4788 35.912 32.4788 35.736C32.4788 35.56 32.5228 35.472 32.6108 35.472C33.4908 35.472 34.1215 35.3987 34.5028 35.252C34.9135 35.1053 35.1775 34.8267 35.2948 34.416C35.4415 34.0053 35.5148 33.3453 35.5148 32.436V12.064C35.5148 11.184 35.4415 10.5387 35.2948 10.128C35.1482 9.71733 34.8695 9.43866 34.4588 9.292C34.0482 9.116 33.4322 9.028 32.6108 9.028C32.5228 9.028 32.4642 8.94 32.4348 8.764C32.4348 8.588 32.4642 8.5 32.5228 8.5H51.4868C51.7215 8.5 51.8388 8.632 51.8388 8.896L51.9268 14.704C51.9268 14.792 51.8388 14.836 51.6628 14.836C51.5162 14.836 51.4282 14.8067 51.3988 14.748C50.9002 13.1053 49.9908 11.8147 48.6708 10.876C47.3802 9.908 45.8402 9.424 44.0508 9.424H43.2148C42.3055 9.424 41.6455 9.49733 41.2348 9.644C40.8535 9.76133 40.6042 9.996 40.4868 10.348C40.3695 10.7 40.2962 11.2867 40.2668 12.108V21.084H45.7668C47.2628 21.084 48.3628 20.82 49.0668 20.292C49.7708 19.764 50.1228 18.9133 50.1228 17.74C50.1228 17.6227 50.2255 17.564 50.4308 17.564C50.6362 17.564 50.7388 17.6373 50.7388 17.784L50.6948 20.204C50.6655 20.556 50.6508 21.0547 50.6508 21.7C50.6508 22.6387 50.6655 23.3427 50.6948 23.812L50.7388 26.188C50.7388 26.3347 50.6508 26.408 50.4748 26.408C50.3868 26.408 50.2988 26.3933 50.2108 26.364C50.1522 26.3053 50.1228 26.2467 50.1228 26.188C50.1228 24.9267 49.7268 23.9733 48.9348 23.328C48.1722 22.6533 47.0868 22.316 45.6788 22.316H40.2668V32.26C40.2668 33.4333 40.4428 34.196 40.7948 34.548C41.1762 34.9 41.9535 35.076 43.1268 35.076H44.3588C46.2655 35.076 48.0108 34.5333 49.5948 33.448C51.1788 32.3333 52.3962 30.852 53.2468 29.004ZM88.0625 35.472C88.1505 35.472 88.1945 35.56 88.1945 35.736C88.2239 35.912 88.1799 36 88.0625 36H80.8465C80.1425 36 78.9105 34.8267 77.1505 32.48C75.4199 30.104 73.3225 26.54 70.8585 21.788C70.0372 21.9933 69.1279 22.096 68.1305 22.096C67.9839 22.096 67.7932 22.0667 67.5585 22.008V32.436C67.5292 33.2867 67.5879 33.932 67.7345 34.372C67.9105 34.7827 68.2039 35.076 68.6145 35.252C69.0545 35.3987 69.7145 35.472 70.5945 35.472C70.7119 35.472 70.7705 35.56 70.7705 35.736C70.7999 35.912 70.7559 36 70.6385 36C69.6412 36 68.8785 35.9853 68.3505 35.956L65.0945 35.912L61.7945 35.956C61.2079 35.9853 60.4159 36 59.4185 36C59.3012 36 59.2279 35.912 59.1985 35.736C59.1985 35.56 59.2572 35.472 59.3745 35.472C60.3425 35.472 61.0612 35.3987 61.5305 35.252C61.9999 35.076 62.3079 34.7827 62.4545 34.372C62.6305 33.932 62.7332 33.2867 62.7625 32.436V12.064C62.7625 11.184 62.6745 10.5387 62.4985 10.128C62.3519 9.71733 62.0585 9.43866 61.6185 9.292C61.1785 9.116 60.5039 9.028 59.5945 9.028C59.4772 9.028 59.4185 8.94 59.4185 8.764C59.4185 8.588 59.4772 8.5 59.5945 8.5L61.9265 8.544C63.2172 8.60267 64.2732 8.632 65.0945 8.632C66.0919 8.632 67.1772 8.57333 68.3505 8.456C69.2892 8.39733 69.9052 8.368 70.1985 8.368C73.1612 8.368 75.3759 8.852 76.8425 9.82C78.3385 10.788 79.0865 12.1373 79.0865 13.868C79.0865 15.1293 78.6612 16.3467 77.8105 17.52C76.9892 18.6933 75.8892 19.676 74.5105 20.468C76.7985 24.252 78.7345 27.2293 80.3185 29.4C81.9319 31.5413 83.3399 33.096 84.5425 34.064C85.7745 35.0027 86.9479 35.472 88.0625 35.472ZM67.5585 20.776C67.9105 20.864 68.3359 20.908 68.8345 20.908C70.7705 20.908 72.1345 20.4827 72.9265 19.632C73.7479 18.7813 74.1585 17.3587 74.1585 15.364C74.1585 13.2813 73.7479 11.756 72.9265 10.788C72.1345 9.79066 71.1519 9.292 69.9785 9.292C69.1865 9.292 68.6439 9.35066 68.3505 9.468C68.0572 9.556 67.8519 9.79067 67.7345 10.172C67.6465 10.524 67.5879 11.184 67.5585 12.152V20.776ZM91.6495 36C91.5909 36 91.5615 35.912 91.5615 35.736C91.5615 35.56 91.5909 35.472 91.6495 35.472C92.5589 35.472 93.2042 35.3987 93.5855 35.252C93.9962 35.1053 94.2749 34.8267 94.4215 34.416C94.5682 34.0053 94.6415 33.3453 94.6415 32.436V12.064C94.6415 11.2133 94.5535 10.5827 94.3775 10.172C94.2309 9.732 93.9522 9.43866 93.5415 9.292C93.1309 9.116 92.5002 9.028 91.6495 9.028C91.5909 9.028 91.5469 8.94 91.5175 8.764C91.5175 8.588 91.5615 8.5 91.6495 8.5L93.8495 8.544C95.1402 8.60267 96.1815 8.632 96.9735 8.632C97.8535 8.632 98.9682 8.60267 100.318 8.544L102.474 8.5C102.532 8.5 102.562 8.588 102.562 8.764C102.562 8.94 102.532 9.028 102.474 9.028C101.594 9.028 100.948 9.116 100.538 9.292C100.127 9.468 99.8482 9.76133 99.7015 10.172C99.5842 10.5827 99.5109 11.2427 99.4815 12.152V32.436C99.4815 33.316 99.5549 33.9613 99.7015 34.372C99.8775 34.7827 100.171 35.076 100.582 35.252C100.992 35.3987 101.623 35.472 102.474 35.472C102.532 35.472 102.562 35.56 102.562 35.736C102.562 35.912 102.532 36 102.474 36C101.564 36 100.831 35.9853 100.274 35.956L97.0615 35.912L93.9375 35.956C93.3802 35.9853 92.6175 36 91.6495 36ZM94.2015 6.168C94.0842 6.168 93.9962 6.10933 93.9375 5.992C93.8789 5.84533 93.8935 5.74267 93.9815 5.684C94.7149 5.09733 95.6829 4.17333 96.8855 2.912C98.0882 1.70933 98.6895 1.108 98.6895 1.108C98.8362 0.961332 99.3642 1.02 100.274 1.284C101.212 1.51867 102.048 1.812 102.782 2.164C103.544 2.48667 103.764 2.67733 103.442 2.736C100.303 3.55733 97.2522 4.68667 94.2895 6.124L94.2015 6.168ZM123.743 36.528C120.135 36.528 117.172 35.824 114.855 34.416C112.538 33.008 110.866 31.2333 109.839 29.092C108.812 26.9213 108.299 24.6333 108.299 22.228C108.299 19.324 109.003 16.8013 110.411 14.66C111.848 12.4893 113.74 10.8467 116.087 9.732C118.463 8.588 121.03 8.016 123.787 8.016C125.136 8.016 126.544 8.148 128.011 8.412C129.478 8.64667 130.666 8.94 131.575 9.292C131.81 9.43866 131.956 9.57066 132.015 9.688C132.103 9.80533 132.147 10.0107 132.147 10.304L132.455 16.2C132.455 16.288 132.382 16.332 132.235 16.332C132.118 16.332 132.03 16.288 131.971 16.2C130.886 13.9707 129.492 12.2547 127.791 11.052C126.119 9.82 124.212 9.204 122.071 9.204C119.284 9.204 117.143 10.216 115.647 12.24C114.18 14.264 113.447 17.1093 113.447 20.776C113.447 23.416 113.902 25.88 114.811 28.168C115.75 30.456 117.011 32.2747 118.595 33.624C120.179 34.9733 121.924 35.648 123.831 35.648C126.852 35.648 129.668 33.4187 132.279 28.96C132.338 28.872 132.411 28.828 132.499 28.828C132.675 28.828 132.763 28.916 132.763 29.092L132.499 34.152C132.44 34.5333 132.382 34.7827 132.323 34.9C132.264 34.988 132.103 35.076 131.839 35.164C129.258 36.0733 126.559 36.528 123.743 36.528ZM166.677 35.472C166.735 35.472 166.765 35.56 166.765 35.736C166.765 35.912 166.735 36 166.677 36C165.855 36 165.181 35.9853 164.653 35.956L161.353 35.912L158.185 35.956C157.627 35.9853 156.865 36 155.897 36C155.838 36 155.794 35.912 155.765 35.736C155.765 35.56 155.809 35.472 155.897 35.472C156.806 35.472 157.451 35.3987 157.833 35.252C158.243 35.1053 158.507 34.8267 158.625 34.416C158.742 34.0053 158.801 33.3453 158.801 32.436V22.316H146.129V32.436C146.129 33.316 146.202 33.9613 146.349 34.372C146.525 34.7827 146.818 35.076 147.229 35.252C147.639 35.3987 148.285 35.472 149.165 35.472C149.253 35.472 149.297 35.56 149.297 35.736C149.297 35.912 149.253 36 149.165 36C148.197 36 147.449 35.9853 146.921 35.956L143.665 35.912L140.629 35.956C140.071 35.9853 139.338 36 138.429 36C138.341 36 138.297 35.912 138.297 35.736C138.297 35.56 138.341 35.472 138.429 35.472C139.309 35.472 139.939 35.3987 140.321 35.252C140.731 35.1053 140.995 34.8267 141.113 34.416C141.259 34.0053 141.333 33.3453 141.333 32.436V12.064C141.362 10.832 141.186 10.0253 140.805 9.644C140.423 9.23333 139.631 9.028 138.429 9.028C138.341 9.028 138.297 8.94 138.297 8.764C138.297 8.588 138.341 8.5 138.429 8.5L140.541 8.544C141.831 8.60267 142.873 8.632 143.665 8.632C144.457 8.632 145.527 8.60267 146.877 8.544L149.121 8.5C149.179 8.5 149.209 8.588 149.209 8.764C149.209 8.94 149.179 9.028 149.121 9.028C148.241 9.028 147.595 9.116 147.185 9.292C146.774 9.468 146.495 9.776 146.349 10.216C146.231 10.6267 146.158 11.272 146.129 12.152V21.084H158.757V12.152C158.757 10.8907 158.566 10.0547 158.185 9.644C157.833 9.23333 157.055 9.028 155.853 9.028C155.794 9.028 155.75 8.94 155.721 8.764C155.721 8.588 155.765 8.5 155.853 8.5L158.009 8.544C159.299 8.60267 160.355 8.632 161.177 8.632C161.969 8.632 163.01 8.60267 164.301 8.544L166.545 8.5C166.633 8.5 166.677 8.588 166.677 8.764C166.677 8.94 166.633 9.028 166.545 9.028C165.665 9.028 165.019 9.116 164.609 9.292C164.227 9.43866 163.963 9.71733 163.817 10.128C163.67 10.5387 163.567 11.184 163.509 12.064V32.436C163.509 33.2867 163.597 33.932 163.773 34.372C163.978 34.7827 164.301 35.076 164.741 35.252C165.181 35.3987 165.826 35.472 166.677 35.472ZM177.124 36C177.036 36 176.992 35.912 176.992 35.736C176.992 35.56 177.022 35.472 177.08 35.472C178.312 35.472 179.207 35.3987 179.764 35.252C180.351 35.1053 180.747 34.8267 180.952 34.416C181.158 33.976 181.26 33.316 181.26 32.436V12.064C181.29 11.0373 181.158 10.3627 180.864 10.04C180.571 9.688 180.014 9.512 179.192 9.512H178.62C177.623 9.512 176.64 9.83466 175.672 10.48C174.704 11.096 173.883 11.932 173.208 12.988C172.534 14.0147 172.123 15.144 171.976 16.376C171.976 16.4347 171.903 16.464 171.756 16.464C171.668 16.464 171.58 16.4493 171.492 16.42C171.434 16.3613 171.419 16.3173 171.448 16.288C171.595 15.1733 171.815 12.2547 172.108 7.532C172.108 7.444 172.182 7.4 172.328 7.4C172.416 7.4 172.49 7.41466 172.548 7.444C172.636 7.47333 172.68 7.51733 172.68 7.576C172.68 8.192 173.34 8.5 174.66 8.5C177.036 8.588 180.014 8.632 183.592 8.632C185.206 8.632 187.01 8.60267 189.004 8.544L192.084 8.5C193.052 8.5 193.756 8.42667 194.196 8.28C194.636 8.13333 194.915 7.84 195.032 7.4C195.091 7.312 195.194 7.28266 195.34 7.312C195.516 7.312 195.59 7.37067 195.56 7.488C195.472 8.77867 195.384 10.4067 195.296 12.372C195.208 14.308 195.179 15.6133 195.208 16.288C195.208 16.376 195.12 16.42 194.944 16.42C194.71 16.42 194.592 16.3613 194.592 16.244C194.592 15.0413 194.314 13.9267 193.756 12.9C193.228 11.8733 192.48 11.052 191.512 10.436C190.574 9.82 189.547 9.512 188.432 9.512H187.86C187.274 9.512 186.848 9.58533 186.584 9.732C186.35 9.87867 186.203 10.128 186.144 10.48C186.086 10.8027 186.042 11.36 186.012 12.152L186.056 32.436C186.056 33.3453 186.144 34.0053 186.32 34.416C186.526 34.8267 186.907 35.1053 187.464 35.252C188.022 35.3987 188.931 35.472 190.192 35.472C190.28 35.472 190.324 35.56 190.324 35.736C190.324 35.912 190.28 36 190.192 36C189.107 36 188.256 35.9853 187.64 35.956L183.636 35.912L179.852 35.956C179.207 35.9853 178.298 36 177.124 36Z" fill="white"/>
</svg>
